LUT/LBK-K-Tone-Intense_BlackLift_33.cube
TITLE "Generated by 3D LUT Creator Pro (c) Oleg Sharonov"
LUT_3D_SIZE 5
#INPUTGAMMA sRGB
#IMAGEPROFILE sRGB
#OUTPUTGAMMA sRGB
0.000000 0.000000 0.000000
0.035486 0.000000 0.000000
0.216596 0.000000 0.000000
0.695142 0.000000 0.000000
1.000000 0.000000 0.000000
0.000000 0.048294 0.000000
0.049669 0.045463 0.000000
0.215336 0.037852 0.000000
0.698676 0.046892 0.000000
1.000000 0.067852 0.000000
0.000000 0.181783 0.000000
0.029966 0.211323 0.000000
0.222426 0.167731 0.000000
0.716678 0.172627 0.000000
1.000000 0.242941 0.000000
0.000000 0.675853 0.000000
0.014983 0.711415 0.000000
0.271417 0.722467 0.000000
0.829150 0.750744 0.000000
1.000000 0.838799 0.000000
0.000000 1.000000 0.000000
0.113620 1.000000 0.000000
0.616541 1.000000 0.000000
0.926830 1.000000 0.000000
1.000000 0.999839 0.022869
0.000000 0.000000 0.027600
0.084261 0.000000 0.057439
0.367480 0.000000 0.013406
0.735357 0.000000 0.003154
1.000000 0.000000 0.003154
0.000000 0.040217 0.032332
0.098729 0.092590 0.078619
0.388573 0.033909 0.003154
0.732293 0.039429 0.003154
1.000000 0.062227 0.003154
0.000000 0.171011 0.030754
0.026023 0.295404 0.033120
0.318553 0.233764 0.007886
0.744014 0.171706 0.003154
1.000000 0.238965 0.003154
0.000000 0.675000 0.037063
0.003154 0.727218 0.024446
0.286977 0.759173 0.021292
0.851432 0.776125 0.003154
1.000000 0.852294 0.027600
0.000000 1.000000 0.135389
0.117405 1.000000 0.156443
0.631115 1.000000 0.222252
0.928046 1.000000 0.344276
1.000000 1.000000 0.430841
0.000000 0.000000 0.169145
0.014983 0.000000 0.640002
0.423778 0.000000 0.327915
0.800284 0.000000 0.105669
1.000000 0.000000 0.040217
0.000000 0.042516 0.155421
0.003154 0.053651 0.422152
0.488026 0.050348 0.380066
0.861507 0.004731 0.102637
1.000000 0.011040 0.006309
0.000000 0.159717 0.152312
0.003154 0.240246 0.253396
0.429088 0.383936 0.369981
0.887393 0.208912 0.083803
1.000000 0.226220 0.006309
0.000000 0.674325 0.197953
0.003154 0.722960 0.232111
0.328248 0.835950 0.319241
0.877549 0.844426 0.289304
1.000000 0.889025 0.359352
0.000000 1.000000 0.501983
0.133009 1.000000 0.539801
0.666027 1.000000 0.641059
0.932386 1.000000 0.791985
1.000000 1.000000 0.881586
0.000000 0.000000 0.671348
0.003154 0.000000 0.702658
0.260632 0.000000 0.851565
0.836256 0.000000 0.765578
1.000000 0.000000 0.704828
0.000000 0.052347 0.661066
0.003154 0.053002 0.692193
0.287496 0.004731 0.926889
0.879999 0.004731 0.817007
1.000000 0.004731 0.730269
0.000000 0.176036 0.654235
0.003154 0.184157 0.678760
0.155933 0.300868 0.871398
0.879396 0.335245 0.825808
1.000000 0.323557 0.776986
0.000000 0.683512 0.699406
0.003154 0.715513 0.734432
0.233764 0.837037 0.825981
0.887330 0.894644 0.854180
1.000000 0.920541 0.865838
0.000000 1.000000 0.878473
0.176260 1.000000 0.888492
0.722055 1.000000 0.911198
0.939649 1.000000 0.940435
1.000000 1.000000 0.951954
0.000000 0.000000 0.999920
0.003154 0.000000 1.000000
0.007097 0.000000 1.000000
0.800716 0.000000 1.000000
1.000000 0.000000 1.000000
0.000000 0.066202 1.000000
0.003154 0.068394 1.000000
0.007097 0.047596 1.000000
0.838122 0.004731 1.000000
1.000000 0.053002 1.000000
0.000000 0.212792 1.000000
0.003154 0.219797 1.000000
0.007097 0.254593 1.000000
0.846569 0.297155 1.000000
1.000000 0.539801 1.000000
0.000000 0.718379 1.000000
0.003154 0.731120 1.000000
0.007097 0.839543 1.000000
0.872137 0.910105 1.000000
1.000000 0.939649 1.000000
0.000000 1.000000 1.000000
0.270166 1.000000 1.000000
0.767900 1.000000 1.000000
0.940726 1.000000 1.000000
1.000000 1.000000 1.000000
