LUT/LBK-K-Tone-Intense_BlackLift_33.cube
TITLE "Generated by 3D LUT Creator Pro (c) Oleg Sharonov"
LUT_3D_SIZE 9
#INPUTGAMMA sRGB
#IMAGEPROFILE sRGB
#OUTPUTGAMMA sRGB
0.000000 0.000000 0.000000
0.007097 0.000000 0.000000
0.035486 0.000000 0.000000
0.101867 0.000000 0.000000
0.216596 0.000000 0.000000
0.474816 0.000000 0.000000
0.695142 0.000000 0.000000
0.880984 0.000000 0.000000
1.000000 0.000000 0.000000
0.000000 0.011040 0.000000
0.010251 0.011829 0.000000
0.040994 0.010251 0.000000
0.103403 0.011040 0.000000
0.217133 0.013406 0.000000
0.475098 0.016560 0.000000
0.696092 0.019714 0.000000
0.882315 0.023657 0.000000
1.000000 0.029177 0.000000
0.000000 0.048294 0.000000
0.009463 0.053651 0.000000
0.049669 0.045463 0.000000
0.107524 0.036274 0.000000
0.215336 0.037852 0.000000
0.475308 0.040994 0.000000
0.698676 0.046892 0.000000
0.885789 0.054934 0.000000
1.000000 0.067852 0.000000
0.000000 0.104163 0.000000
0.005520 0.123360 0.000000
0.043264 0.114664 0.000000
0.117066 0.093011 0.000000
0.207976 0.079582 0.000000
0.475098 0.082881 0.000000
0.704276 0.090892 0.000000
0.892340 0.105669 0.000000
1.000000 0.130280 0.000000
0.000000 0.181783 0.000000
0.001577 0.221204 0.000000
0.029966 0.211323 0.000000
0.112919 0.199728 0.000000
0.222426 0.167731 0.000000
0.478040 0.158215 0.000000
0.716678 0.172627 0.000000
0.902894 0.200901 0.000000
1.000000 0.242941 0.000000
0.000000 0.430761 0.000000
0.001577 0.454499 0.000000
0.020503 0.467138 0.000000
0.097930 0.463530 0.000000
0.251587 0.463530 0.000000
0.515340 0.448428 0.000000
0.750196 0.452561 0.000000
0.922365 0.484817 0.000000
1.000000 0.535651 0.000000
0.000000 0.675853 0.000000
0.001577 0.689533 0.000000
0.014983 0.711415 0.000000
0.093011 0.714470 0.000000
0.271417 0.722467 0.000000
0.597795 0.739083 0.000000
0.829150 0.750744 0.000000
0.949717 0.791073 0.000000
1.000000 0.838799 0.000000
0.000000 0.899847 0.000000
0.001577 0.907120 0.000000
0.006309 0.922843 0.000000
0.106786 0.926326 0.000000
0.338039 0.932386 0.000000
0.695488 0.941657 0.000000
0.885757 0.953356 0.000000
0.965038 0.962333 0.000000
1.000000 0.968153 0.000000
0.000000 1.000000 0.000000
0.031543 1.000000 0.000000
0.113620 1.000000 0.000000
0.289946 1.000000 0.000000
0.616541 1.000000 0.000000
0.829287 1.000000 0.000000
0.926830 1.000000 0.000000
0.973705 1.000000 0.000000
1.000000 0.999839 0.022869
0.000000 0.000000 0.005520
0.011829 0.000000 0.011040
0.079582 0.000000 0.005520
0.155677 0.000000 0.001577
0.243413 0.000000 0.001577
0.489993 0.000000 0.001577
0.704148 0.000000 0.001577
0.885316 0.000000 0.001577
1.000000 0.000000 0.001577
0.000000 0.010251 0.009463
0.018137 0.021292 0.015771
0.089165 0.011829 0.005520
0.153095 0.010251 0.001577
0.240564 0.011829 0.001577
0.489044 0.014983 0.001577
0.704786 0.018137 0.001577
0.886418 0.022869 0.001577
1.000000 0.028389 0.001577
0.000000 0.046181 0.010251
0.011829 0.075669 0.013406
0.074664 0.062227 0.008674
0.148869 0.041759 0.001577
0.231447 0.036274 0.001577
0.486596 0.039429 0.001577
0.706525 0.045463 0.001577
0.889526 0.053651 0.001577
1.000000 0.066756 0.001577
0.000000 0.101090 0.010251
0.004731 0.138017 0.008674
0.051686 0.142009 0.007886
0.145068 0.109712 0.001577
0.232774 0.083343 0.001577
0.483237 0.081950 0.001577
0.710995 0.089165 0.001577
0.895390 0.104163 0.001577
1.000000 0.128739 0.001577
0.000000 0.178491 0.010251
0.001577 0.217312 0.007886
0.026023 0.244041 0.002366
0.123683 0.227242 0.001577
0.248539 0.185225 0.001577
0.484062 0.158466 0.001577
0.722179 0.171706 0.001577
0.905347 0.199335 0.001577
1.000000 0.241518 0.001577
0.000000 0.429328 0.011040
0.001577 0.452711 0.009463
0.015771 0.487754 0.001577
0.097529 0.481720 0.001577
0.265946 0.479085 0.001577
0.530788 0.459446 0.001577
0.763247 0.459812 0.001577
0.926326 0.489586 0.001577
1.000000 0.540040 0.001577
0.000000 0.675539 0.013406
0.001577 0.689140 0.011040
0.005520 0.724848 0.001577
0.086072 0.726851 0.001577
0.274037 0.733585 0.001577
0.608906 0.748902 0.001577
0.835882 0.758054 0.001577
0.951238 0.795841 0.001577
1.000000 0.842174 0.001577
0.000000 0.900279 0.018926
0.001577 0.907394 0.016560
0.005520 0.923529 0.008674
0.108258 0.929141 0.011040
0.342282 0.934767 0.014983
0.699707 0.943543 0.022080
0.887079 0.954584 0.041759
0.965263 0.962897 0.080060
1.000000 0.968573 0.113270
0.000000 1.000000 0.053002
0.031543 1.000000 0.056196
0.114664 1.000000 0.063382
0.293261 1.000000 0.076167
0.620664 1.000000 0.096315
0.830625 1.000000 0.127180
0.927127 1.000000 0.164623
0.973761 1.000000 0.204950
1.000000 1.000000 0.213887
0.000000 0.000000 0.027600
0.007097 0.000000 0.121078
0.084261 0.000000 0.057439
0.213887 0.000000 0.029966
0.367480 0.000000 0.013406
0.543910 0.000000 0.003154
0.735357 0.000000 0.003154
0.896538 0.000000 0.003154
1.000000 0.000000 0.003154
0.000000 0.009463 0.027600
0.005520 0.016560 0.075669
0.098729 0.019714 0.072104
0.288272 0.002366 0.029177
0.439550 0.002366 0.003943
0.537460 0.009463 0.003154
0.734271 0.014983 0.003154
0.897220 0.019714 0.003154
1.000000 0.026023 0.003154
0.000000 0.040217 0.032332
0.006309 0.063953 0.055568
0.098729 0.092590 0.078619
0.257117 0.056820 0.031543
0.388573 0.033909 0.003154
0.528150 0.033120 0.003154
0.732293 0.039429 0.003154
0.899106 0.048985 0.003154
1.000000 0.062227 0.003154
0.000000 0.094262 0.033120
0.001577 0.129049 0.038640
0.063953 0.196761 0.054934
0.205901 0.162923 0.034697
0.344381 0.099126 0.003154
0.526053 0.081010 0.003154
0.731768 0.083803 0.003154
0.903447 0.098330 0.003154
1.000000 0.123036 0.003154
0.000000 0.171011 0.030754
0.001577 0.207224 0.031543
0.026023 0.295404 0.033120
0.152050 0.292500 0.029177
0.318553 0.233764 0.007886
0.538482 0.182434 0.003154
0.744014 0.171706 0.003154
0.911926 0.194149 0.003154
1.000000 0.238965 0.003154
0.000000 0.425880 0.031543
0.001577 0.448503 0.030754
0.006309 0.508814 0.022080
0.101867 0.523696 0.021292
0.298895 0.516798 0.018926
0.575844 0.487958 0.003154
0.794062 0.477621 0.003154
0.935001 0.500932 0.003154
1.000000 0.550790 0.003154
0.000000 0.675000 0.037063
0.001577 0.688396 0.035486
0.003154 0.727218 0.024446
0.079102 0.755188 0.020503
0.286977 0.759173 0.021292
0.633364 0.771536 0.024446
0.851432 0.776125 0.003154
0.955069 0.806943 0.003154
1.000000 0.852294 0.027600
0.000000 0.901172 0.054934
0.001577 0.908340 0.050348
0.003943 0.924304 0.035486
0.110791 0.935558 0.042516
0.352725 0.940435 0.052347
0.709734 0.947934 0.075168
0.890184 0.957148 0.118418
0.965881 0.964109 0.191704
1.000000 0.969552 0.254444
0.000000 1.000000 0.135389
0.033120 1.000000 0.141164
0.117405 1.000000 0.156443
0.301971 1.000000 0.184157
0.631115 1.000000 0.222252
0.833873 1.000000 0.278383
0.928046 1.000000 0.344276
0.974011 1.000000 0.418136
1.000000 1.000000 0.430841
0.000000 0.000000 0.073137
0.001577 0.000000 0.129973
0.063953 0.000000 0.276491
0.237839 0.000000 0.178934
0.390552 0.000000 0.081481
0.605765 0.000000 0.044738
0.788766 0.000000 0.022080
0.919673 0.000000 0.004731
1.000000 0.000000 0.004731
0.000000 0.011829 0.069470
0.001577 0.014194 0.118418
0.062227 0.013406 0.300622
0.247307 0.013406 0.189433
0.465122 0.002366 0.088291
0.648921 0.002366 0.041759
0.806765 0.002366 0.014194
0.919373 0.010251 0.004731
1.000000 0.019714 0.004731
0.000000 0.038640 0.070003
0.001577 0.046181 0.105295
0.049669 0.075669 0.245291
0.259758 0.076662 0.208351
0.562587 0.029177 0.091319
0.743776 0.004731 0.026023
0.818861 0.018926 0.004731
0.919193 0.034697 0.004731
1.000000 0.051020 0.004731
0.000000 0.083343 0.070003
0.001577 0.106043 0.097930
0.037063 0.177825 0.179596
0.231779 0.211508 0.195560
0.499878 0.146981 0.097126
0.732778 0.073137 0.004731
0.814410 0.074158 0.004731
0.922664 0.083803 0.004731
1.000000 0.110072 0.004731
0.000000 0.160215 0.070533
0.001577 0.192523 0.083343
0.017349 0.279726 0.117744
0.169847 0.362315 0.150203
0.406389 0.325465 0.101479
0.669353 0.224504 0.023657
0.821545 0.188390 0.004731
0.934150 0.198151 0.004731
1.000000 0.246224 0.004731
0.000000 0.420436 0.072622
0.001577 0.442021 0.078134
0.003154 0.500735 0.082881
0.109712 0.580887 0.106786
0.347189 0.579522 0.096721
0.644839 0.539561 0.053651
0.843855 0.506745 0.004731
0.947271 0.517493 0.004731
1.000000 0.566769 0.004731
0.000000 0.674325 0.090463
0.001577 0.687431 0.091745
0.003154 0.724971 0.086520
0.077155 0.782794 0.092168
0.312399 0.798590 0.097126
0.668034 0.807085 0.101867
0.864929 0.806943 0.072622
0.958057 0.829150 0.067852
1.000000 0.868591 0.125602
0.000000 0.903140 0.140312
0.001577 0.910105 0.137147
0.003154 0.925613 0.120418
0.109350 0.940319 0.143686
0.368733 0.948538 0.169145
0.724725 0.953985 0.202067
0.894520 0.960156 0.262657
0.966808 0.966078 0.365152
1.000000 0.971144 0.444475
0.000000 1.000000 0.277844
0.035486 1.000000 0.286717
0.123036 1.000000 0.309326
0.312281 1.000000 0.349149
0.648354 1.000000 0.403472
0.837817 1.000000 0.469644
0.929761 1.000000 0.551722
0.974233 1.000000 0.644219
1.000000 1.000000 0.652877
0.000000 0.000000 0.169145
0.001577 0.000000 0.174907
0.014983 0.000000 0.640002
0.185863 0.000000 0.464760
0.423778 0.000000 0.327915
0.629446 0.000000 0.184157
0.800284 0.000000 0.105669
0.928342 0.000000 0.068394
1.000000 0.000000 0.040217
0.000000 0.014983 0.164381
0.001577 0.015771 0.178048
0.003154 0.011040 0.636718
0.214613 0.002366 0.565474
0.496300 0.002366 0.378206
0.669989 0.002366 0.198349
0.819141 0.002366 0.106786
0.934326 0.002366 0.065085
1.000000 0.002366 0.033120
0.000000 0.042516 0.155421
0.001577 0.043264 0.176036
0.003154 0.053651 0.422152
0.186287 0.056820 0.520136
0.488026 0.050348 0.380066
0.756894 0.004731 0.227751
0.861507 0.004731 0.102637
0.946232 0.004731 0.051686
1.000000 0.011040 0.006309
0.000000 0.086520 0.153095
0.001577 0.088291 0.166065
0.003154 0.123683 0.302460
0.160958 0.190675 0.463384
0.477131 0.178934 0.386854
0.764509 0.096315 0.233270
0.907760 0.007097 0.063382
0.959703 0.025234 0.006309
1.000000 0.076662 0.006309
0.000000 0.159717 0.152312
0.001577 0.165345 0.159966
0.003154 0.240246 0.253396
0.126866 0.354951 0.369502
0.429088 0.383936 0.369981
0.738524 0.315784 0.253995
0.887393 0.208912 0.083803
0.960014 0.168910 0.006309
1.000000 0.226220 0.006309
0.000000 0.419699 0.159468
0.001577 0.434476 0.173314
0.003154 0.489316 0.223468
0.083343 0.571858 0.293640
0.361725 0.633071 0.329022
0.697214 0.613705 0.273213
0.871398 0.562587 0.155677
0.959221 0.543910 0.071060
1.000000 0.597742 0.079582
0.000000 0.674325 0.197953
0.001577 0.686948 0.209285
0.003154 0.722960 0.232111
0.061056 0.782534 0.268768
0.328248 0.835950 0.319241
0.694103 0.842343 0.318783
0.877549 0.844426 0.289304
0.960948 0.857180 0.284628
1.000000 0.889025 0.359352
0.000000 0.906509 0.294019
0.001577 0.913077 0.298151
0.003154 0.927720 0.301114
0.103021 0.942325 0.339638
0.380437 0.955212 0.396329
0.740280 0.959277 0.437373
0.898117 0.963010 0.499878
0.967593 0.968377 0.608084
1.000000 0.972843 0.683423
0.000000 1.000000 0.501983
0.040994 1.000000 0.512793
0.133009 1.000000 0.539801
0.330124 1.000000 0.584524
0.666027 1.000000 0.641059
0.844661 1.000000 0.707286
0.932386 1.000000 0.791985
0.974539 1.000000 0.879396
1.000000 1.000000 0.881586
0.000000 0.000000 0.441636
0.001577 0.000000 0.440556
0.003154 0.000000 0.566319
0.107524 0.000000 0.751604
0.355555 0.000000 0.654048
0.658150 0.000000 0.561735
0.817007 0.000000 0.461639
0.934678 0.000000 0.407753
1.000000 0.000000 0.381362
0.000000 0.018137 0.436983
0.001577 0.018926 0.436045
0.003154 0.018137 0.543851
0.103784 0.002366 0.809926
0.389204 0.002366 0.697214
0.692975 0.002366 0.590113
0.834657 0.002366 0.474605
0.939445 0.002366 0.412984
1.000000 0.002366 0.382284
0.000000 0.046892 0.427568
0.001577 0.047596 0.430841
0.003154 0.047596 0.506031
0.036274 0.004731 0.921559
0.437919 0.022869 0.757629
0.744686 0.019714 0.637396
0.871043 0.004731 0.506485
0.950435 0.004731 0.423859
1.000000 0.004731 0.380622
0.000000 0.091319 0.417393
0.001577 0.093011 0.429567
0.003154 0.096315 0.473053
0.012617 0.132407 0.754838
0.373317 0.148063 0.711289
0.728563 0.133906 0.631115
0.899044 0.046892 0.539202
0.965769 0.007097 0.427086
1.000000 0.007097 0.355756
0.000000 0.166065 0.421336
0.001577 0.168675 0.428129
0.003154 0.185225 0.461128
0.019714 0.277574 0.618708
0.337932 0.362118 0.675359
0.713175 0.351402 0.629593
0.888555 0.275267 0.550440
0.967285 0.200511 0.448276
1.000000 0.241994 0.406730
0.000000 0.426041 0.432663
0.001577 0.428929 0.436358
0.003154 0.464109 0.478667
0.033120 0.545449 0.572914
0.306217 0.631066 0.633071
0.707751 0.668990 0.639953
0.883232 0.636330 0.583821
0.963207 0.616743 0.524194
1.000000 0.670034 0.526238
0.000000 0.675718 0.466275
0.001577 0.688001 0.481720
0.003154 0.722673 0.519571
0.042516 0.783645 0.574851
0.300130 0.840995 0.629348
0.702956 0.866649 0.650573
0.883296 0.870657 0.637589
0.963489 0.885316 0.641251
1.000000 0.908827 0.679028
0.000000 0.911683 0.569461
0.001577 0.917842 0.578427
0.003154 0.931208 0.597637
0.096315 0.945424 0.632338
0.372653 0.957148 0.674505
0.747487 0.962389 0.707329
0.901542 0.966134 0.738644
0.968321 0.970949 0.790341
1.000000 0.975233 0.830214
0.000000 1.000000 0.729132
0.048985 1.000000 0.735357
0.149671 1.000000 0.750235
0.360442 1.000000 0.774474
0.689752 1.000000 0.803837
0.854246 1.000000 0.841197
0.935910 1.000000 0.884780
0.974622 1.000000 0.918323
1.000000 1.000000 0.919553
0.000000 0.000000 0.671348
0.001577 0.000000 0.670533
0.003154 0.000000 0.702658
0.014194 0.000000 0.911441
0.260632 0.000000 0.851565
0.614009 0.000000 0.808223
0.836256 0.000000 0.765578
0.941104 0.000000 0.717633
1.000000 0.000000 0.704828
0.000000 0.022080 0.667898
0.001577 0.022080 0.667214
0.003154 0.022080 0.699321
0.004731 0.008674 0.903508
0.271971 0.002366 0.874833
0.642881 0.002366 0.827154
0.851432 0.002366 0.780753
0.945366 0.002366 0.727911
1.000000 0.002366 0.712296
0.000000 0.052347 0.661066
0.001577 0.052347 0.660419
0.003154 0.053002 0.692193
0.004731 0.046892 0.846302
0.287496 0.004731 0.926889
0.706186 0.004731 0.871944
0.879999 0.004731 0.817007
0.955126 0.004731 0.753048
1.000000 0.004731 0.730269
0.000000 0.098729 0.653580
0.001577 0.099916 0.656010
0.003154 0.101867 0.683335
0.004731 0.111504 0.790341
0.214613 0.083343 0.943108
0.691279 0.103784 0.868656
0.881174 0.102253 0.821893
0.967593 0.018137 0.789499
1.000000 0.019714 0.755421
0.000000 0.176036 0.654235
0.001577 0.178270 0.660419
0.003154 0.184157 0.678760
0.004731 0.223641 0.757938
0.155933 0.300868 0.871398
0.667898 0.335461 0.854610
0.879396 0.335245 0.825808
0.963574 0.279056 0.792897
1.000000 0.323557 0.776986
0.000000 0.435810 0.668581
0.001577 0.438463 0.673019
0.003154 0.445772 0.685629
0.004731 0.505055 0.757938
0.164864 0.591926 0.827016
0.655590 0.662173 0.843755
0.877549 0.676883 0.831173
0.963207 0.682272 0.818407
1.000000 0.739083 0.818966
0.000000 0.683512 0.699406
0.001577 0.686333 0.702956
0.003154 0.715513 0.734432
0.004731 0.777098 0.788693
0.233764 0.837037 0.825981
0.674865 0.871816 0.844560
0.887330 0.894644 0.854180
0.964222 0.905102 0.853387
1.000000 0.920541 0.865838
0.000000 0.919253 0.783867
0.001577 0.924750 0.791949
0.003154 0.936583 0.810316
0.092168 0.949660 0.832166
0.369118 0.959476 0.854742
0.746897 0.964419 0.870560
0.905531 0.969608 0.888931
0.969413 0.974122 0.908157
1.000000 0.977918 0.923827
0.000000 1.000000 0.878473
0.062806 1.000000 0.881523
0.176260 1.000000 0.888492
0.406901 1.000000 0.899230
0.722055 1.000000 0.911198
0.865286 1.000000 0.926385
0.939649 1.000000 0.940435
0.974678 1.000000 0.950550
1.000000 1.000000 0.951954
0.000000 0.000000 0.857345
0.001577 0.000000 0.857049
0.003154 0.000000 0.860526
0.004731 0.000000 0.913893
0.144517 0.000000 0.958795
0.542842 0.000000 0.940610
0.826188 0.000000 0.930175
0.947876 0.000000 0.921080
1.000000 0.000000 0.916518
0.000000 0.025234 0.855962
0.001577 0.025234 0.855665
0.003154 0.026023 0.860363
0.004731 0.022869 0.909618
0.134501 0.002366 0.966303
0.557964 0.002366 0.948481
0.839543 0.002366 0.937080
0.951611 0.002366 0.926771
1.000000 0.002366 0.921260
0.000000 0.058053 0.853023
0.001577 0.058662 0.852857
0.003154 0.059868 0.860035
0.004731 0.056196 0.900803
0.081010 0.004731 0.979078
0.597795 0.004731 0.965516
0.867556 0.004731 0.952813
0.959844 0.004731 0.940173
1.000000 0.004731 0.932563
0.000000 0.108623 0.850236
0.001577 0.109712 0.850103
0.003154 0.111859 0.860101
0.004731 0.111504 0.890872
0.007097 0.086965 0.976618
0.644123 0.014983 0.979078
0.875984 0.082416 0.959532
0.961061 0.106786 0.943369
1.000000 0.117405 0.937431
0.000000 0.190882 0.850236
0.001577 0.192931 0.852493
0.003154 0.198547 0.862617
0.004731 0.206090 0.884811
0.007097 0.259028 0.957205
0.558881 0.288272 0.969245
0.867006 0.327472 0.953785
0.960156 0.364762 0.944325
1.000000 0.416648 0.940610
0.000000 0.450012 0.860166
0.001577 0.452860 0.863106
0.003154 0.459885 0.871043
0.004731 0.485571 0.894053
0.007097 0.562757 0.946665
0.552246 0.646124 0.956921
0.868236 0.691975 0.952527
0.960750 0.733626 0.948481
1.000000 0.788142 0.948740
0.000000 0.697429 0.880539
0.001577 0.700521 0.883011
0.003154 0.714846 0.892527
0.004731 0.766531 0.918443
0.108987 0.830008 0.942760
0.614060 0.875537 0.952641
0.880603 0.902280 0.956124
0.964109 0.918323 0.957461
1.000000 0.930293 0.960382
0.000000 0.927186 0.922604
0.001577 0.931591 0.926385
0.003154 0.941773 0.935412
0.066202 0.953671 0.945915
0.353941 0.961372 0.954042
0.748352 0.966667 0.959844
0.907120 0.971980 0.964954
0.970335 0.977061 0.969105
1.000000 0.980456 0.972175
0.000000 1.000000 0.962276
0.083803 1.000000 0.963066
0.221204 1.000000 0.964841
0.465049 1.000000 0.967172
0.757629 1.000000 0.969413
0.878122 1.000000 0.972231
0.941104 1.000000 0.974483
0.974622 1.000000 0.978029
1.000000 1.000000 0.978692
0.000000 0.000000 0.999920
0.001577 0.000000 0.999973
0.003154 0.000000 1.000000
0.004731 0.000000 1.000000
0.007097 0.000000 1.000000
0.474464 0.000000 1.000000
0.800716 0.000000 1.000000
0.948970 0.000000 1.000000
1.000000 0.000000 1.000000
0.000000 0.029177 1.000000
0.001577 0.029177 1.000000
0.003154 0.029966 1.000000
0.004731 0.029177 1.000000
0.007097 0.011040 1.000000
0.478667 0.002366 1.000000
0.811907 0.002366 1.000000
0.952155 0.002366 1.000000
1.000000 0.002366 1.000000
0.000000 0.066202 1.000000
0.001577 0.066756 1.000000
0.003154 0.068394 1.000000
0.004731 0.067305 1.000000
0.007097 0.047596 1.000000
0.483031 0.004731 1.000000
0.838122 0.004731 1.000000
0.959419 0.004731 1.000000
1.000000 0.053002 1.000000
0.000000 0.122061 1.000000
0.001577 0.123036 1.000000
0.003154 0.125602 1.000000
0.004731 0.127180 1.000000
0.007097 0.118418 1.000000
0.455835 0.063382 1.000000
0.862421 0.044738 1.000000
0.959476 0.118753 1.000000
1.000000 0.216954 1.000000
0.000000 0.212792 1.000000
0.001577 0.214250 1.000000
0.003154 0.219797 1.000000
0.004731 0.228597 1.000000
0.007097 0.254593 1.000000
0.374924 0.238644 1.000000
0.846569 0.297155 1.000000
0.957631 0.399310 1.000000
1.000000 0.539801 1.000000
0.000000 0.470214 1.000000
0.001577 0.473053 1.000000
0.003154 0.480613 1.000000
0.004731 0.493427 1.000000
0.007097 0.552711 1.000000
0.421254 0.629348 1.000000
0.848572 0.705550 1.000000
0.959107 0.772894 1.000000
1.000000 0.834521 1.000000
0.000000 0.718379 1.000000
0.001577 0.721932 1.000000
0.003154 0.731120 1.000000
0.004731 0.777023 1.000000
0.007097 0.839543 1.000000
0.547922 0.881047 1.000000
0.872137 0.910105 1.000000
0.963320 0.926444 1.000000
1.000000 0.939649 1.000000
0.000000 0.937869 1.000000
0.001577 0.941540 1.000000
0.003154 0.949717 1.000000
0.055568 0.958568 1.000000
0.357259 0.964222 1.000000
0.759752 0.969608 1.000000
0.909983 0.974428 1.000000
0.971060 0.979492 1.000000
1.000000 0.982602 1.000000
0.000000 1.000000 1.000000
0.106043 1.000000 1.000000
0.270166 1.000000 1.000000
0.505836 1.000000 1.000000
0.767900 1.000000 1.000000
0.876783 1.000000 1.000000
0.940726 1.000000 1.000000
0.974622 1.000000 1.000000
1.000000 1.000000 1.000000
