LUT/LBK-K-Tone-Intense_BlackLift_33.cube
TITLE "Generated by 3D LUT Creator Pro (c) Oleg Sharonov"
LUT_3D_SIZE 33
#INPUTGAMMA sRGB
#IMAGEPROFILE sRGB
#OUTPUTGAMMA sRGB
0.000000 0.000000 0.000000
0.000789 0.000000 0.000000
0.001577 0.000000 0.000000
0.003943 0.000000 0.000000
0.007097 0.000000 0.000000
0.011040 0.000000 0.000000
0.017349 0.000000 0.000000
0.026023 0.000000 0.000000
0.035486 0.000000 0.000000
0.047596 0.000000 0.000000
0.061643 0.000000 0.000000
0.080060 0.000000 0.000000
0.101867 0.000000 0.000000
0.126235 0.000000 0.000000
0.153615 0.000000 0.000000
0.183942 0.000000 0.000000
0.216596 0.000000 0.000000
0.284890 0.000000 0.000000
0.350482 0.000000 0.000000
0.413904 0.000000 0.000000
0.474816 0.000000 0.000000
0.533348 0.000000 0.000000
0.589579 0.000000 0.000000
0.643359 0.000000 0.000000
0.695142 0.000000 0.000000
0.745595 0.000000 0.000000
0.794062 0.000000 0.000000
0.839543 0.000000 0.000000
0.880984 0.000000 0.000000
0.917842 0.000000 0.000000
0.949717 0.000000 0.000000
0.976452 0.000000 0.000000
1.000000 0.000000 0.000000
0.000000 0.000789 0.000000
0.000789 0.000789 0.000000
0.002366 0.000789 0.000000
0.004731 0.000789 0.000000
0.007886 0.000789 0.000000
0.012617 0.000789 0.000000
0.018926 0.001577 0.000000
0.026812 0.001577 0.000000
0.037063 0.001577 0.000000
0.048985 0.001577 0.000000
0.062806 0.001577 0.000000
0.080536 0.001577 0.000000
0.101867 0.002366 0.000000
0.126866 0.002366 0.000000
0.153875 0.002366 0.000000
0.183942 0.002366 0.000000
0.216775 0.003154 0.000000
0.284890 0.003154 0.000000
0.350789 0.003154 0.000000
0.413904 0.003154 0.000000
0.474887 0.003943 0.000000
0.533469 0.003943 0.000000
0.589686 0.003943 0.000000
0.643550 0.003943 0.000000
0.695271 0.004731 0.000000
0.745832 0.004731 0.000000
0.794316 0.004731 0.000000
0.839712 0.005520 0.000000
0.881237 0.005520 0.000000
0.918022 0.006309 0.000000
0.949832 0.006309 0.000000
0.976507 0.006309 0.000000
1.000000 0.007097 0.000000
0.000000 0.003154 0.000000
0.000789 0.003154 0.000000
0.002366 0.003154 0.000000
0.005520 0.003154 0.000000
0.008674 0.003154 0.000000
0.013406 0.003154 0.000000
0.019714 0.003154 0.000000
0.027600 0.003154 0.000000
0.037852 0.003154 0.000000
0.050348 0.003154 0.000000
0.063953 0.003943 0.000000
0.081010 0.003943 0.000000
0.102637 0.004731 0.000000
0.126866 0.004731 0.000000
0.154133 0.005520 0.000000
0.184157 0.005520 0.000000
0.216775 0.006309 0.000000
0.285021 0.006309 0.000000
0.350789 0.007097 0.000000
0.414071 0.007097 0.000000
0.474887 0.007886 0.000000
0.533530 0.007886 0.000000
0.589739 0.008674 0.000000
0.643694 0.008674 0.000000
0.695444 0.009463 0.000000
0.746029 0.009463 0.000000
0.794571 0.010251 0.000000
0.840016 0.011040 0.000000
0.881459 0.011040 0.000000
0.918202 0.011829 0.000000
0.949947 0.012617 0.000000
0.976563 0.013406 0.000000
1.000000 0.014194 0.000000
0.000000 0.006309 0.000000
0.000789 0.007097 0.000000
0.003154 0.007097 0.000000
0.006309 0.006309 0.000000
0.009463 0.005520 0.000000
0.014194 0.005520 0.000000
0.020503 0.005520 0.000000
0.029177 0.005520 0.000000
0.039429 0.006309 0.000000
0.051686 0.006309 0.000000
0.065646 0.006309 0.000000
0.081481 0.007097 0.000000
0.103021 0.007097 0.000000
0.127493 0.007886 0.000000
0.154650 0.008674 0.000000
0.184371 0.008674 0.000000
0.216954 0.009463 0.000000
0.285152 0.010251 0.000000
0.350789 0.011040 0.000000
0.414155 0.011040 0.000000
0.475027 0.011829 0.000000
0.533591 0.012617 0.000000
0.589900 0.012617 0.000000
0.643837 0.013406 0.000000
0.695660 0.014194 0.000000
0.746384 0.014983 0.000000
0.794934 0.015771 0.000000
0.840388 0.016560 0.000000
0.881840 0.017349 0.000000
0.918533 0.018137 0.000000
0.950148 0.018926 0.000000
0.976618 0.020503 0.000000
1.000000 0.021292 0.000000
0.000000 0.011040 0.000000
0.000789 0.012617 0.000000
0.003154 0.012617 0.000000
0.006309 0.013406 0.000000
0.010251 0.011829 0.000000
0.015771 0.011040 0.000000
0.022080 0.010251 0.000000
0.030754 0.010251 0.000000
0.040994 0.010251 0.000000
0.053002 0.010251 0.000000
0.067305 0.010251 0.000000
0.082416 0.010251 0.000000
0.103403 0.011040 0.000000
0.127806 0.011829 0.000000
0.154907 0.011829 0.000000
0.184585 0.012617 0.000000
0.217133 0.013406 0.000000
0.285283 0.014194 0.000000
0.350789 0.014983 0.000000
0.414155 0.015771 0.000000
0.475098 0.016560 0.000000
0.533773 0.017349 0.000000
0.590167 0.018137 0.000000
0.644123 0.018926 0.000000
0.696092 0.019714 0.000000
0.746818 0.020503 0.000000
0.795478 0.021292 0.000000
0.840928 0.022080 0.000000
0.882315 0.023657 0.000000
0.918893 0.025234 0.000000
0.950435 0.026023 0.000000
0.976757 0.027600 0.000000
1.000000 0.029177 0.000000
0.000000 0.018926 0.000000
0.000789 0.021292 0.000000
0.003154 0.020503 0.000000
0.006309 0.020503 0.000000
0.011040 0.020503 0.000000
0.016560 0.018926 0.000000
0.023657 0.017349 0.000000
0.032332 0.016560 0.000000
0.043264 0.015771 0.000000
0.055568 0.014983 0.000000
0.068934 0.014983 0.000000
0.084717 0.014983 0.000000
0.103784 0.015771 0.000000
0.127806 0.016560 0.000000
0.154907 0.016560 0.000000
0.184799 0.017349 0.000000
0.217133 0.018137 0.000000
0.285152 0.018926 0.000000
0.350789 0.019714 0.000000
0.414155 0.020503 0.000000
0.475238 0.021292 0.000000
0.534016 0.022080 0.000000
0.590434 0.022869 0.000000
0.644457 0.024446 0.000000
0.696524 0.025234 0.000000
0.747448 0.026023 0.000000
0.796095 0.027600 0.000000
0.841602 0.029177 0.000000
0.883011 0.030754 0.000000
0.919373 0.032332 0.000000
0.950808 0.033909 0.000000
0.976923 0.035486 0.000000
1.000000 0.037852 0.000000
0.000000 0.027600 0.000000
0.000789 0.030754 0.000000
0.003154 0.030754 0.000000
0.006309 0.029966 0.000000
0.011040 0.029966 0.000000
0.018137 0.029177 0.000000
0.026023 0.026812 0.000000
0.034697 0.024446 0.000000
0.045463 0.022869 0.000000
0.057439 0.022080 0.000000
0.071060 0.022080 0.000000
0.086520 0.021292 0.000000
0.103403 0.021292 0.000000
0.127806 0.022080 0.000000
0.154650 0.022080 0.000000
0.184371 0.022869 0.000000
0.216775 0.023657 0.000000
0.284890 0.024446 0.000000
0.350687 0.025234 0.000000
0.414071 0.026023 0.000000
0.475238 0.027600 0.000000
0.534137 0.028389 0.000000
0.590701 0.029177 0.000000
0.644887 0.030754 0.000000
0.697128 0.031543 0.000000
0.748038 0.033120 0.000000
0.796928 0.034697 0.000000
0.842477 0.036274 0.000000
0.883738 0.037852 0.000000
0.919972 0.039429 0.000000
0.951238 0.041759 0.000000
0.977116 0.044005 0.000000
1.000000 0.046892 0.000000
0.000000 0.037063 0.000000
0.000789 0.041759 0.000000
0.002366 0.041759 0.000000
0.005520 0.041759 0.000000
0.010251 0.040994 0.000000
0.017349 0.040217 0.000000
0.027600 0.039429 0.000000
0.037063 0.035486 0.000000
0.047596 0.033120 0.000000
0.059868 0.030754 0.000000
0.073649 0.029966 0.000000
0.088729 0.028389 0.000000
0.105295 0.028389 0.000000
0.127180 0.028389 0.000000
0.153875 0.028389 0.000000
0.183728 0.029177 0.000000
0.216237 0.029966 0.000000
0.284365 0.030754 0.000000
0.350380 0.031543 0.000000
0.413904 0.033120 0.000000
0.475308 0.033909 0.000000
0.534319 0.034697 0.000000
0.591074 0.036274 0.000000
0.645458 0.037063 0.000000
0.697773 0.038640 0.000000
0.749020 0.040217 0.000000
0.797904 0.041759 0.000000
0.843452 0.044005 0.000000
0.884654 0.046181 0.000000
0.920721 0.048294 0.000000
0.951725 0.051020 0.000000
0.977282 0.053651 0.000000
1.000000 0.056820 0.000000
0.000000 0.048294 0.000000
0.000789 0.053002 0.000000
0.002366 0.054934 0.000000
0.005520 0.054295 0.000000
0.009463 0.053651 0.000000
0.016560 0.053002 0.000000
0.026812 0.051686 0.000000
0.038640 0.049669 0.000000
0.049669 0.045463 0.000000
0.062227 0.041759 0.000000
0.075669 0.039429 0.000000
0.090892 0.037852 0.000000
0.107524 0.036274 0.000000
0.125919 0.035486 0.000000
0.152835 0.036274 0.000000
0.182650 0.037063 0.000000
0.215336 0.037852 0.000000
0.283708 0.038640 0.000000
0.349868 0.039429 0.000000
0.413654 0.040217 0.000000
0.475308 0.040994 0.000000
0.534561 0.042516 0.000000
0.591500 0.044005 0.000000
0.646077 0.045463 0.000000
0.698676 0.046892 0.000000
0.750118 0.048294 0.000000
0.799203 0.050348 0.000000
0.844728 0.052347 0.000000
0.885789 0.054934 0.000000
0.921559 0.057439 0.000000
0.952327 0.060464 0.000000
0.977531 0.064521 0.000000
1.000000 0.067852 0.000000
0.000000 0.060464 0.000000
0.000789 0.065646 0.000000
0.001577 0.069470 0.000000
0.004731 0.068934 0.000000
0.008674 0.067852 0.000000
0.014983 0.066756 0.000000
0.024446 0.065646 0.000000
0.037852 0.064521 0.000000
0.051686 0.060464 0.000000
0.064521 0.056196 0.000000
0.078134 0.052347 0.000000
0.093011 0.048985 0.000000
0.109712 0.046892 0.000000
0.127806 0.045463 0.000000
0.151525 0.044738 0.000000
0.181348 0.045463 0.000000
0.213887 0.046181 0.000000
0.282652 0.046892 0.000000
0.349149 0.047596 0.000000
0.413319 0.048985 0.000000
0.475238 0.049669 0.000000
0.534804 0.051020 0.000000
0.591979 0.052347 0.000000
0.646789 0.054295 0.000000
0.699664 0.055568 0.000000
0.751409 0.057439 0.000000
0.800644 0.059868 0.000000
0.846268 0.062227 0.000000
0.887079 0.065085 0.000000
0.922544 0.068394 0.000000
0.953071 0.072104 0.000000
0.977835 0.076167 0.000000
1.000000 0.080536 0.000000
0.000000 0.073649 0.000000
0.000789 0.079582 0.000000
0.000789 0.086520 0.000000
0.003943 0.085622 0.000000
0.007886 0.084717 0.000000
0.013406 0.083343 0.000000
0.022080 0.081950 0.000000
0.034697 0.080060 0.000000
0.051020 0.078134 0.000000
0.066202 0.072622 0.000000
0.080060 0.067305 0.000000
0.095499 0.062806 0.000000
0.112214 0.059868 0.000000
0.129973 0.056820 0.000000
0.149404 0.054934 0.000000
0.179376 0.055568 0.000000
0.212243 0.056196 0.000000
0.281459 0.056820 0.000000
0.348222 0.057439 0.000000
0.412817 0.058662 0.000000
0.475098 0.059868 0.000000
0.535046 0.061056 0.000000
0.592564 0.062227 0.000000
0.647643 0.063953 0.000000
0.700992 0.065646 0.000000
0.753009 0.067852 0.000000
0.802440 0.070533 0.000000
0.847972 0.073137 0.000000
0.888617 0.076662 0.000000
0.923708 0.080536 0.000000
0.953928 0.085170 0.000000
0.978222 0.090032 0.000000
1.000000 0.094676 0.000000
0.000000 0.088291 0.000000
0.000789 0.094262 0.000000
0.000789 0.101867 0.000000
0.002366 0.104542 0.000000
0.006309 0.103403 0.000000
0.011829 0.101479 0.000000
0.019714 0.099522 0.000000
0.031543 0.097529 0.000000
0.047596 0.095499 0.000000
0.066756 0.093429 0.000000
0.082416 0.086072 0.000000
0.097930 0.079582 0.000000
0.114664 0.074664 0.000000
0.132407 0.070533 0.000000
0.152050 0.067852 0.000000
0.177156 0.066756 0.000000
0.210214 0.067305 0.000000
0.279859 0.067852 0.000000
0.347293 0.068394 0.000000
0.412314 0.069470 0.000000
0.475098 0.070533 0.000000
0.535409 0.072104 0.000000
0.593307 0.073649 0.000000
0.648732 0.075168 0.000000
0.702444 0.077155 0.000000
0.754877 0.080060 0.000000
0.804517 0.082881 0.000000
0.849970 0.086072 0.000000
0.890309 0.090032 0.000000
0.924988 0.094676 0.000000
0.954898 0.099916 0.000000
0.978581 0.105669 0.000000
1.000000 0.111504 0.000000
0.000000 0.104163 0.000000
0.000789 0.110432 0.000000
0.000789 0.118081 0.000000
0.001577 0.124965 0.000000
0.005520 0.123360 0.000000
0.011040 0.121734 0.000000
0.018137 0.119422 0.000000
0.028389 0.117066 0.000000
0.043264 0.114664 0.000000
0.061643 0.112214 0.000000
0.083343 0.109712 0.000000
0.099916 0.100309 0.000000
0.117066 0.093011 0.000000
0.135389 0.086965 0.000000
0.154907 0.082881 0.000000
0.176036 0.079582 0.000000
0.207976 0.079582 0.000000
0.278383 0.080060 0.000000
0.346360 0.081010 0.000000
0.411894 0.081950 0.000000
0.475098 0.082881 0.000000
0.535953 0.084261 0.000000
0.594314 0.086520 0.000000
0.650102 0.088291 0.000000
0.704276 0.090892 0.000000
0.757087 0.093846 0.000000
0.806943 0.097126 0.000000
0.852294 0.101090 0.000000
0.892340 0.105669 0.000000
0.926504 0.111148 0.000000
0.955981 0.117405 0.000000
0.979078 0.123683 0.000000
1.000000 0.130280 0.000000
0.000000 0.121406 0.000000
0.000789 0.127806 0.000000
0.000789 0.135389 0.000000
0.001577 0.146710 0.000000
0.004731 0.145068 0.000000
0.009463 0.143129 0.000000
0.015771 0.140880 0.000000
0.026023 0.138306 0.000000
0.039429 0.135683 0.000000
0.057439 0.132708 0.000000
0.078134 0.129973 0.000000
0.101867 0.126551 0.000000
0.119422 0.116042 0.000000
0.138017 0.107892 0.000000
0.157963 0.101479 0.000000
0.179596 0.096721 0.000000
0.205901 0.093846 0.000000
0.276627 0.094262 0.000000
0.345320 0.095088 0.000000
0.411642 0.096315 0.000000
0.475379 0.097529 0.000000
0.536737 0.099126 0.000000
0.595530 0.101479 0.000000
0.651656 0.103784 0.000000
0.706525 0.106786 0.000000
0.759829 0.110072 0.000000
0.809749 0.113969 0.000000
0.855039 0.118753 0.000000
0.894520 0.124326 0.000000
0.928282 0.130586 0.000000
0.957205 0.137728 0.000000
0.979547 0.145068 0.000000
1.000000 0.152574 0.000000
0.000000 0.140028 0.000000
0.000789 0.146437 0.000000
0.000789 0.153875 0.000000
0.001577 0.164864 0.000000
0.003154 0.168675 0.000000
0.008674 0.166543 0.000000
0.014194 0.163897 0.000000
0.022869 0.161452 0.000000
0.036274 0.158466 0.000000
0.053002 0.155677 0.000000
0.073137 0.152574 0.000000
0.097126 0.149671 0.000000
0.121734 0.144517 0.000000
0.141164 0.133608 0.000000
0.161944 0.124646 0.000000
0.184157 0.118081 0.000000
0.208538 0.112567 0.000000
0.275131 0.110791 0.000000
0.344485 0.111859 0.000000
0.411390 0.112919 0.000000
0.475800 0.114664 0.000000
0.537761 0.116385 0.000000
0.597059 0.119088 0.000000
0.653767 0.121734 0.000000
0.709270 0.125284 0.000000
0.763017 0.129357 0.000000
0.813107 0.133906 0.000000
0.858100 0.139456 0.000000
0.896972 0.145618 0.000000
0.930293 0.153095 0.000000
0.958625 0.161452 0.000000
0.980098 0.169613 0.000000
1.000000 0.178270 0.000000
0.000000 0.159966 0.000000
0.000789 0.166304 0.000000
0.000789 0.173771 0.000000
0.001577 0.184799 0.000000
0.002366 0.193947 0.000000
0.007097 0.191704 0.000000
0.012617 0.189225 0.000000
0.020503 0.186498 0.000000
0.032332 0.183728 0.000000
0.048294 0.180693 0.000000
0.068394 0.177603 0.000000
0.091745 0.174454 0.000000
0.118418 0.171706 0.000000
0.144517 0.165105 0.000000
0.166304 0.153615 0.000000
0.189640 0.144517 0.000000
0.214975 0.137437 0.000000
0.276491 0.131803 0.000000
0.343962 0.131499 0.000000
0.411474 0.132708 0.000000
0.476641 0.134501 0.000000
0.539202 0.136855 0.000000
0.599054 0.139742 0.000000
0.656243 0.143129 0.000000
0.712631 0.146981 0.000000
0.766797 0.151788 0.000000
0.816972 0.157205 0.000000
0.861573 0.163654 0.000000
0.899723 0.171011 0.000000
0.932563 0.179596 0.000000
0.960156 0.189433 0.000000
0.980704 0.198547 0.000000
1.000000 0.207976 0.000000
0.000000 0.181783 0.000000
0.000789 0.187972 0.000000
0.000789 0.195359 0.000000
0.001577 0.206280 0.000000
0.001577 0.221204 0.000000
0.005520 0.219268 0.000000
0.011829 0.216954 0.000000
0.018926 0.214250 0.000000
0.029966 0.211323 0.000000
0.044738 0.208351 0.000000
0.063382 0.205331 0.000000
0.086520 0.202454 0.000000
0.112919 0.199728 0.000000
0.143408 0.197159 0.000000
0.171243 0.188808 0.000000
0.195761 0.177156 0.000000
0.222426 0.167731 0.000000
0.284365 0.160711 0.000000
0.345424 0.155421 0.000000
0.412146 0.155933 0.000000
0.478040 0.158215 0.000000
0.541175 0.160711 0.000000
0.601562 0.164139 0.000000
0.659587 0.167967 0.000000
0.716678 0.172627 0.000000
0.771347 0.178270 0.000000
0.821475 0.184799 0.000000
0.865481 0.192114 0.000000
0.902894 0.200901 0.000000
0.935060 0.210770 0.000000
0.961796 0.222078 0.000000
0.981392 0.232277 0.000000
1.000000 0.242941 0.000000
0.000000 0.244197 0.000000
0.000789 0.249763 0.000000
0.000789 0.256378 0.000000
0.001577 0.265804 0.000000
0.001577 0.279056 0.000000
0.004731 0.282785 0.000000
0.010251 0.280794 0.000000
0.017349 0.278652 0.000000
0.026812 0.276220 0.000000
0.040994 0.273762 0.000000
0.059267 0.271278 0.000000
0.081950 0.268908 0.000000
0.108258 0.266655 0.000000
0.138595 0.264522 0.000000
0.172627 0.262513 0.000000
0.202647 0.253995 0.000000
0.230947 0.243727 0.000000
0.293640 0.235730 0.000000
0.355051 0.229775 0.000000
0.415736 0.225535 0.000000
0.479849 0.226220 0.000000
0.543673 0.228934 0.000000
0.604783 0.232443 0.000000
0.663552 0.236543 0.000000
0.721602 0.241518 0.000000
0.776612 0.247307 0.000000
0.826464 0.253995 0.000000
0.869625 0.261647 0.000000
0.906448 0.270584 0.000000
0.937869 0.280794 0.000000
0.963574 0.292500 0.000000
0.982052 0.302338 0.000000
1.000000 0.312751 0.000000
0.000000 0.306457 0.000000
0.000789 0.311457 0.000000
0.000789 0.317172 0.000000
0.001577 0.325577 0.000000
0.001577 0.337075 0.000000
0.003154 0.345736 0.000000
0.008674 0.344172 0.000000
0.015771 0.342388 0.000000
0.024446 0.340593 0.000000
0.037852 0.338573 0.000000
0.055568 0.336538 0.000000
0.077646 0.334705 0.000000
0.104163 0.332860 0.000000
0.134501 0.331222 0.000000
0.169145 0.329904 0.000000
0.208164 0.329132 0.000000
0.240724 0.320269 0.000000
0.304042 0.311693 0.000000
0.366027 0.305011 0.000000
0.427086 0.300499 0.000000
0.486868 0.297529 0.000000
0.547040 0.297280 0.000000
0.608700 0.300868 0.000000
0.668626 0.305253 0.000000
0.727544 0.310394 0.000000
0.782794 0.316247 0.000000
0.832200 0.323331 0.000000
0.874256 0.331331 0.000000
0.910409 0.340487 0.000000
0.940843 0.350789 0.000000
0.965094 0.362512 0.000000
0.982794 0.372177 0.000000
1.000000 0.382284 0.000000
0.000000 0.368637 0.000000
0.000789 0.373127 0.000000
0.000789 0.378113 0.000000
0.001577 0.385490 0.000000
0.001577 0.395624 0.000000
0.002366 0.408178 0.000000
0.007097 0.406901 0.000000
0.014194 0.405534 0.000000
0.022869 0.404161 0.000000
0.035486 0.402696 0.000000
0.052347 0.401224 0.000000
0.074158 0.399833 0.000000
0.100700 0.398524 0.000000
0.131499 0.397560 0.000000
0.166543 0.396681 0.000000
0.206090 0.396329 0.000000
0.250829 0.396329 0.000000
0.315668 0.387850 0.000000
0.378579 0.380992 0.000000
0.440092 0.376053 0.000000
0.500274 0.372843 0.000000
0.559167 0.371320 0.000000
0.616592 0.371511 0.000000
0.674820 0.373696 0.000000
0.734552 0.379045 0.000000
0.789902 0.385307 0.000000
0.838427 0.392519 0.000000
0.879459 0.400703 0.000000
0.914800 0.410041 0.000000
0.944035 0.420682 0.000000
0.967032 0.434476 0.000000
0.983891 0.446381 0.000000
1.000000 0.459079 0.000000
0.000000 0.430761 0.000000
0.000789 0.434712 0.000000
0.000789 0.439162 0.000000
0.001577 0.445620 0.000000
0.001577 0.454499 0.000000
0.002366 0.465987 0.000000
0.005520 0.469144 0.000000
0.012617 0.468214 0.000000
0.020503 0.467138 0.000000
0.033120 0.466203 0.000000
0.049669 0.465194 0.000000
0.071584 0.464327 0.000000
0.097930 0.463530 0.000000
0.129049 0.463167 0.000000
0.164864 0.462876 0.000000
0.205521 0.462949 0.000000
0.251587 0.463530 0.000000
0.328690 0.463747 0.000000
0.392430 0.456648 0.000000
0.454648 0.451514 0.000000
0.515340 0.448428 0.000000
0.574464 0.446989 0.000000
0.633705 0.447140 0.000000
0.693062 0.449032 0.000000
0.750196 0.452561 0.000000
0.802799 0.457976 0.000000
0.848372 0.464977 0.000000
0.888241 0.473900 0.000000
0.922365 0.484817 0.000000
0.949660 0.497828 0.000000
0.969664 0.511578 0.000000
0.985178 0.523198 0.000000
1.000000 0.535651 0.000000
0.000000 0.492823 0.000000
0.000789 0.496300 0.000000
0.000789 0.500208 0.000000
0.001577 0.505836 0.000000
0.001577 0.513687 0.000000
0.002366 0.523759 0.000000
0.003943 0.530849 0.000000
0.011040 0.530176 0.000000
0.018926 0.529624 0.000000
0.030754 0.528949 0.000000
0.047596 0.528458 0.000000
0.068934 0.528089 0.000000
0.095499 0.527842 0.000000
0.127493 0.527842 0.000000
0.164139 0.528150 0.000000
0.206280 0.528765 0.000000
0.253995 0.529747 0.000000
0.333838 0.531276 0.000000
0.407753 0.531460 0.000000
0.470855 0.526486 0.000000
0.532070 0.523261 0.000000
0.593148 0.521951 0.000000
0.654656 0.522326 0.000000
0.714554 0.524380 0.000000
0.770402 0.528150 0.000000
0.819594 0.533712 0.000000
0.862552 0.540936 0.000000
0.899909 0.549914 0.000000
0.930677 0.561108 0.000000
0.954413 0.574022 0.000000
0.972231 0.587811 0.000000
0.986436 0.600519 0.000000
1.000000 0.614517 0.000000
0.000000 0.554565 0.000000
0.000789 0.557562 0.000000
0.000789 0.561051 0.000000
0.001577 0.566094 0.000000
0.001577 0.572803 0.000000
0.002366 0.581540 0.000000
0.002366 0.591553 0.000000
0.009463 0.591287 0.000000
0.018137 0.591074 0.000000
0.028389 0.590861 0.000000
0.045463 0.590754 0.000000
0.066756 0.590807 0.000000
0.094262 0.591021 0.000000
0.126551 0.591447 0.000000
0.164623 0.592139 0.000000
0.208538 0.593254 0.000000
0.258148 0.594790 0.000000
0.339319 0.596690 0.000000
0.417475 0.599264 0.000000
0.488434 0.599630 0.000000
0.551664 0.596743 0.000000
0.615682 0.595583 0.000000
0.678671 0.596111 0.000000
0.737804 0.598372 0.000000
0.790451 0.602344 0.000000
0.836358 0.607930 0.000000
0.876942 0.615226 0.000000
0.910955 0.624951 0.000000
0.937490 0.637202 0.000000
0.958937 0.652220 0.000000
0.974733 0.667305 0.000000
0.987665 0.680853 0.000000
1.000000 0.695315 0.000000
0.000000 0.615732 0.000000
0.000789 0.618356 0.000000
0.000789 0.621415 0.000000
0.001577 0.625744 0.000000
0.001577 0.631654 0.000000
0.002366 0.639183 0.000000
0.002366 0.648496 0.000000
0.007886 0.651185 0.000000
0.016560 0.651232 0.000000
0.026812 0.651374 0.000000
0.043264 0.651656 0.000000
0.065646 0.652032 0.000000
0.093429 0.652689 0.000000
0.126866 0.653627 0.000000
0.166304 0.654796 0.000000
0.211876 0.656243 0.000000
0.263807 0.658335 0.000000
0.346878 0.660789 0.000000
0.426604 0.663874 0.000000
0.502770 0.667533 0.000000
0.575017 0.668535 0.000000
0.641395 0.667670 0.000000
0.704233 0.668581 0.000000
0.760637 0.671257 0.000000
0.809643 0.675853 0.000000
0.853387 0.682538 0.000000
0.890622 0.691366 0.000000
0.920152 0.702402 0.000000
0.943717 0.715762 0.000000
0.963264 0.731768 0.000000
0.977116 0.746029 0.000000
0.988837 0.758865 0.000000
1.000000 0.772140 0.000000
0.000000 0.675853 0.000000
0.000789 0.678091 0.000000
0.000789 0.680719 0.000000
0.001577 0.684439 0.000000
0.001577 0.689533 0.000000
0.002366 0.696179 0.000000
0.002366 0.704913 0.000000
0.005520 0.710995 0.000000
0.014983 0.711415 0.000000
0.025234 0.711834 0.000000
0.041759 0.712505 0.000000
0.064521 0.713384 0.000000
0.093011 0.714470 0.000000
0.128118 0.715887 0.000000
0.169145 0.717591 0.000000
0.216954 0.719745 0.000000
0.271417 0.722467 0.000000
0.356258 0.725584 0.000000
0.437763 0.729295 0.000000
0.516608 0.733827 0.000000
0.597795 0.739083 0.000000
0.668762 0.741037 0.000000
0.729538 0.742388 0.000000
0.782089 0.745595 0.000000
0.829150 0.750744 0.000000
0.869690 0.757938 0.000000
0.902341 0.767102 0.000000
0.928046 0.778144 0.000000
0.949717 0.791073 0.000000
0.967341 0.805659 0.000000
0.979299 0.817323 0.000000
0.989925 0.828118 0.000000
1.000000 0.838799 0.000000
0.000000 0.734512 0.000000
0.000789 0.736522 0.000000
0.000789 0.738963 0.000000
0.001577 0.742507 0.000000
0.001577 0.747330 0.000000
0.002366 0.753710 0.000000
0.002366 0.761905 0.000000
0.003154 0.770818 0.000000
0.013406 0.771536 0.000000
0.023657 0.772291 0.000000
0.040217 0.773308 0.000000
0.063382 0.774474 0.000000
0.093429 0.775937 0.000000
0.129973 0.777771 0.000000
0.173314 0.779897 0.000000
0.223468 0.782534 0.000000
0.280927 0.785529 0.000000
0.367770 0.789133 0.000000
0.450838 0.793261 0.000000
0.533894 0.797976 0.000000
0.617751 0.803408 0.000000
0.694146 0.809572 0.000000
0.752736 0.812366 0.000000
0.803587 0.815780 0.000000
0.847772 0.820919 0.000000
0.883738 0.827636 0.000000
0.911805 0.835882 0.000000
0.935558 0.845465 0.000000
0.955212 0.856094 0.000000
0.971060 0.867362 0.000000
0.981200 0.875473 0.000000
0.990713 0.883296 0.000000
1.000000 0.891247 0.000000
0.000000 0.792970 0.000000
0.000789 0.794934 0.000000
0.000789 0.797181 0.000000
0.001577 0.800464 0.000000
0.001577 0.804874 0.000000
0.002366 0.810564 0.000000
0.002366 0.817638 0.000000
0.003154 0.826119 0.000000
0.011040 0.828875 0.000000
0.022080 0.829836 0.000000
0.038640 0.831071 0.000000
0.062806 0.832474 0.000000
0.094262 0.834180 0.000000
0.132708 0.836120 0.000000
0.178270 0.838427 0.000000
0.231447 0.841063 0.000000
0.292246 0.844225 0.000000
0.381084 0.847705 0.000000
0.466275 0.851697 0.000000
0.554565 0.856094 0.000000
0.640387 0.860788 0.000000
0.713927 0.866098 0.000000
0.774737 0.871880 0.000000
0.823316 0.875441 0.000000
0.863269 0.879745 0.000000
0.894302 0.885127 0.000000
